X:1
T:Title
%%score { 1 | 2 }
L:1/8
M:9/8
K:Eb
V:1 treble nm="Grand Piano"
V:2 bass 
V:1
 z3 z2[Q:1/4=100] E GGG | G3 E2 F GAc | B3- B2 G [EA][EB][Ec] | B3 G3 E3 | [DF]3- [DF]2 [DF] GGG | %5
 G3 E2 F GAc | B3- B2 G BAG | [DF]3 [DG]3 [B,F]3 |[M:5/8] [G,B,E]-[G,B,E]- [G,B,E]3 | %9
[M:2/4] [GB]c Ac |[M:9/8] [GB]3 [EG]2 [GB] cAc | [GB]3- [GB]2 B cde | B3 G3 E3 | %13
 [DF]3- [DF]2 [DF] GGG | G3 E2 G [EA][EB][Ec] | B3- B2 G BAG | [DF]3 [DG]3 [B,F]3 | %17
[M:5/8] [G,B,E]-[G,B,E]- [G,B,E]3 |] %18
V:2
 z3 z2 [E,G,] [E,B,E][E,B,E][E,B,E] | [E,B,E]3 [E,G,B,]2 [E,A,B,] [E,B,E][E,CE][E,A,E] | %2
 [E,G,E]3- [E,G,E]2 [E,B,E] [C,A,][B,,G,][A,,A,] | [E,G,E]3 [E,B,]3 [C,=A,C]3 | %4
 [B,,B,]3- [B,,B,]2 [B,,B,] [E,B,E][E,B,E][E,B,E] | %5
 [E,B,E]3 [E,G,B,]2 [E,A,B,] [E,B,E][E,CE][E,A,E] | %6
 [E,G,E]3- [E,G,E]2 [E,B,E] [G,B,E][F,B,D][E,B,E] | [B,,B,]3 [B,,B,]3 [B,,A,]3 | %8
[M:5/8] [E,,E,]-[E,,E,]- [E,,E,]3 |[M:2/4] [E,E][K:treble][A,EA] [A,CE][A,EA] | %10
[M:9/8][K:bass] [E,E]3 [E,B,]2 [E,E][K:treble] [A,EA][A,CE][A,EA] | %11
 [E,E]3- [E,E]2 [E,G,E] [A,E][A,B,E][A,CE] | [G,B,E]3 [E,B,]3 [C,=A,C]3 | %13
 [B,,B,]3- [B,,B,]2 [B,,B,] [E,B,E][E,B,E][E,B,E] | %14
 [E,B,E]3 [E,G,B,]2 [E,B,E] [C,A,][B,,G,][A,,A,] | %15
 [E,G,E]3- [E,G,E]2 [E,B,E] [G,B,E][F,B,D][E,B,E] | [B,,B,]3 [B,,B,]3 [B,,A,]3 | %17
[M:5/8] [E,,E,]-[E,,E,]- [E,,E,]3 |] %18

